X:44
T:Tollfosztóban voltam
O:Tolna
Q:"Tempo guisto"
M:4/4
L:1/4
K:D
BGFE | A/F/D/C/ B, z | 
FBdB | c/B/A/G/ F z | 
FBdB | c/B/A/G/ F/G/ A | 
B/G/F/E/ | A F | D/C/ B,z |

